X: 170
T: Lads o' the Fair
M:4/4
R:reel
L:1/8
Z:added by Alf warnock alf0@rogers.com - www.alfwarnock.info/alfs
K:G
B|"D7"A3A A2B2|"C"c2"D7"A4BA|"G"G2g2 g2f2|"C"e2"G"d4ef|
"G"g2f2 "C"e2d2|"G"e2f2 "Em"g2e2|"G"d2B2 G2B2|"D7"B2A4B2|
"D7"A3A A2B2|"C"c2"D7"A4BA|"G"G2g2 g2f2|"C"e2"G"d4ef|
g2f2 "C"e2d2|"G"e2f2 "Em"g2e2|"G"d2B2 "D7"A2BA|"G"G6BA|
"G"G2g2 g3f|"C"ed"D7"ef "G"g4| "G"G2g2 g2gf|"C"e2"D7"d2 "G"B2G2|
"G"G2g2 g3f|"C"ed"D7"ef "G"g4| "G"G2g2 g2gf|"C"e2"D7"d2 "G"B2G2|
"G"b2a2 g2dd|"C"e2"D7"f2 "G"g4| "G"G2g2 g2gd|"D7"e2d4B2|
"C"c2e2 "D"d2B2|"Am"A2BA "Em"G2dd|"C"e2f2 "G"g2B2|"D"A2"G"G4z:|

